app/assets/images/icons/calendar-solid.svg

<?xml version="1.0" encoding="UTF-8" standalone="no"?>
<svg width="30px" height="30px" viewBox="0 0 30 30" version="1.1" xmlns="http://www.w3.org/2000/svg" xmlns:xlink="http://www.w3.org/1999/xlink">
    <!-- Generator: Sketch 3.7.2 (28276) - http://www.bohemiancoding.com/sketch -->
    <title>calendar-solid</title>
    <desc>Created with Sketch.</desc>
    <defs></defs>
    <g id="Icons" stroke="none" stroke-width="1" fill="none" fill-rule="evenodd">
        <g id="calendar-solid" fill="#050505">
            <path d="M30,7.5 L30,4 C30,1.79535615 28.2094637,0 26.0007252,0 L3.9992748,0 C1.78679466,0 0,1.790861 0,4 L0,7.5 L0,25.9937057 C0,28.2143671 1.79053632,30 3.9992748,30 L26.0007252,30 C28.2132053,30 30,28.206321 30,25.9937057 L30,7.5 Z M17.8247451,17.8321044 C17.5980148,18.0629018 17.7323571,18.5681435 17.8284271,18.6642136 C18.5507662,19.3920419 19,20.3935588 19,21.5 C19,23.709139 17.209139,25.5 15,25.5 C12.790861,25.5 11,23.709139 11,21.5 C11,20.3935588 11.4492338,19.3920419 12.1752549,18.6678956 C12.4019852,18.4370982 12.2676429,17.9318565 12.1715729,17.8357864 C11.4492338,17.1079581 11,16.1064412 11,15 C11,12.790861 12.790861,11 15,11 C17.209139,11 19,12.790861 19,15 C19,16.1064412 18.5507662,17.1079581 17.8247451,17.8321044 Z M13,15 C13,13.8954305 13.8954305,13 15,13 C16.1045695,13 17,13.8954305 17,15 C17,15.5560378 16.7730896,16.0590778 16.406816,16.4215729 L16.406816,16.4215729 C15.629853,17.2026215 14.367348,17.2031344 13.5857864,16.4215729 L13.5857864,16.4215729 C13.2269104,16.0590778 13,15.5560378 13,15 Z M13,21.5 C13,22.6045695 13.8954305,23.5 15,23.5 C16.1045695,23.5 17,22.6045695 17,21.5 C17,20.9439622 16.7730896,20.4409222 16.406816,20.0784271 L16.406816,20.0784271 C15.629853,19.2973785 14.367348,19.2968656 13.5857864,20.0784271 L13.5857864,20.0784271 C13.2269104,20.4409222 13,20.9439622 13,21.5 Z M2,3.99791312 C2,2.89449617 2.89497885,2 3.99700466,2 L26.0029953,2 C27.1059106,2 28,2.89826062 28,3.99791312 L28,8 L2,8 L2,3.99791312 Z" id="Combined-Shape"></path>
        </g>
    </g>
</svg>

<?xml version="1.0" encoding="UTF-8" standalone="no"?>
<svg width="30" height="30" viewBox="0 0 30 30" xmlns="http://www.w3.org/2000/svg">
  <path d="M30 7.5V4c0-2.205-1.79-4-4-4H4C1.786 0 0 1.79 0 4v21.994C0 28.214 1.79 30 4 30h22a4 4 0 0 0 4-4.006V7.5zM17.825 17.832c-.227.23-.093.736.003.832A4.015 4.015 0 0 1 19 21.5a4 4 0 1 1-6.825-2.832c.227-.23.093-.736-.003-.832A4.015 4.015 0 0 1 11 15a4 4 0 1 1 6.825 2.832zM13 15a2 2 0 1 1 3.407 1.422 1.99 1.99 0 0 1-2.821 0A2.018 2.018 0 0 1 13 15zm0 6.5a2 2 0 1 0 3.407-1.422 1.99 1.99 0 0 0-2.821 0A2.018 2.018 0 0 0 13 21.5zM2 3.998C2 2.894 2.895 2 3.997 2h22.006A2 2 0 0 1 28 3.998V8H2V3.998z" fill="#050505" fill-rule="evenodd"/>
</svg>
